;Generated with Cura_SteamEngine 13.11.2
M140 S85.000000
M109 T0 S225.000000
T0
M190 S85.000000
;Sliced at: Tue 04-10-2016 17:20:53
;Basic settings: Layer height: 0.25 Walls: 1 Fill: 35
;Print time: #P_TIME#
;Filament used: #F_AMNT#m #F_WGHT#g
;Filament cost: #F_COST#
;M190 S85 ;Uncomment to add your own bed temperature line
;M109 S225 ;Uncomment to add your own temperature line
G21        ;metric values
G90        ;absolute positioning
M107       ;start with the fan off
G28 X0 Y0  ;move X/Y to min endstops
G28 Z0     ;move Z to min endstops
G1 Z15.0 F9000 ;move the platform down 15mm
G92 E0                  ;zero the extruded length
G1 F200 E3              ;extrude 3mm of feed stock
G92 E0                  ;zero the extruded length again
G1 F9000
;Put printing message on LCD screen
M117 Printing...

;Layer count: 87
;LAYER:0
M107
G0 F3600 X68.26 Y62.65 Z0.30
;TYPE:SKIRT
G1 F2400 E0.00000
G1 F1200 X70.17 Y60.75 E0.16783
G1 X127.83 Y60.75 E3.76423
G1 X129.74 Y62.65 E3.93211
G1 X129.74 Y122.35 E7.65473
G1 X127.83 Y124.25 E7.82265
G1 X70.17 Y124.25 E11.41905
G1 X68.26 Y122.35 E11.58693
G1 X68.26 Y62.65 E15.30955
G0 F3600 X72.11 Y64.51
G0 X72.26 Y64.75
;TYPE:WALL-INNER
G1 F1200 X125.74 Y64.75 E18.64446
G1 X125.74 Y120.25 E22.10559
G1 X72.26 Y120.25 E25.44050
G1 X72.26 Y64.75 E28.90163
G0 F3600 X71.76 Y64.25
;TYPE:WALL-OUTER
G1 F1200 X126.24 Y64.25 E32.29891
G1 X126.24 Y120.75 E35.82240
G1 X71.76 Y120.75 E39.21967
G1 X71.76 Y64.25 E42.74317
G0 F3600 X72.41 Y64.99
;TYPE:FILL
G1 F1200 X125.59 Y118.16 E47.43299
G0 F3600 X125.59 Y118.87
G1 F1200 X72.41 Y65.69 E52.12281
G0 F3600 X72.41 Y66.40
G1 F1200 X125.59 Y119.58 E56.81262
G0 F3600 X125.40 Y120.10
G1 F1200 X72.41 Y67.11 E61.48617
G0 F3600 X72.41 Y67.82
G1 F1200 X124.69 Y120.10 E66.09732
G0 F3600 X123.99 Y120.10
G1 F1200 X72.41 Y68.52 E70.64611
G0 F3600 X72.41 Y69.23
G1 F1200 X123.28 Y120.10 E75.13255
G0 F3600 X122.57 Y120.10
G1 F1200 X72.41 Y69.94 E79.55664
G0 F3600 X72.41 Y70.64
G1 F1200 X121.87 Y120.10 E83.91838
G0 F3600 X121.16 Y120.10
G1 F1200 X72.41 Y71.35 E88.21771
G0 F3600 X72.41 Y72.06
G1 F1200 X120.45 Y120.10 E92.45470
G0 F3600 X119.75 Y120.10
G1 F1200 X72.41 Y72.76 E96.62933
G0 F3600 X72.41 Y73.47
G1 F1200 X119.04 Y120.10 E100.74161
G0 F3600 X118.33 Y120.10
G1 F1200 X72.41 Y74.18 E104.79149
G0 F3600 X72.41 Y74.89
G1 F1200 X117.62 Y120.10 E108.77901
G0 F3600 X116.92 Y120.10
G1 F1200 X72.41 Y75.59 E112.70419
G0 F3600 X72.41 Y76.30
G1 F1200 X116.21 Y120.10 E116.56701
G0 F3600 X115.50 Y120.10
G1 F1200 X72.41 Y77.01 E120.36747
G0 F3600 X72.41 Y77.71
G1 F1200 X114.79 Y120.10 E124.10554
G0 F3600 X114.09 Y120.10
G1 F1200 X72.41 Y78.42 E127.78126
G0 F3600 X72.41 Y79.13
G1 F1200 X113.38 Y120.10 E131.39462
G0 F3600 X112.67 Y120.10
G1 F1200 X72.41 Y79.83 E134.94563
G0 F3600 X72.41 Y80.54
G1 F1200 X111.97 Y120.10 E138.43429
G0 F3600 X111.26 Y120.10
G1 F1200 X72.41 Y81.25 E141.86054
G0 F3600 X72.41 Y81.96
G1 F1200 X110.55 Y120.10 E145.22445
G0 F3600 X109.85 Y120.10
G1 F1200 X72.41 Y82.66 E148.52600
G0 F3600 X72.41 Y83.37
G1 F1200 X109.14 Y120.10 E151.76520
G0 F3600 X108.43 Y120.10
G1 F1200 X72.41 Y84.08 E154.94200
G0 F3600 X72.41 Y84.79
G1 F1200 X107.72 Y120.10 E158.05645
G0 F3600 X107.02 Y120.10
G1 F1200 X72.41 Y85.49 E161.10854
G0 F3600 X72.41 Y86.20
G1 F1200 X106.31 Y120.10 E164.09828
G0 F3600 X105.60 Y120.10
G1 F1200 X72.41 Y86.91 E167.02567
G0 F3600 X72.41 Y87.61
G1 F1200 X104.90 Y120.10 E169.89066
G0 F3600 X104.19 Y120.10
G1 F1200 X72.41 Y88.32 E172.69330
G0 F3600 X72.41 Y89.03
G1 F1200 X103.48 Y120.10 E175.43358
G0 F3600 X102.78 Y120.10
G1 F1200 X72.41 Y89.74 E178.11151
G0 F3600 X72.41 Y90.44
G1 F1200 X102.07 Y120.10 E180.72709
G0 F3600 X101.36 Y120.10
G1 F1200 X72.41 Y91.15 E183.28027
G0 F3600 X72.41 Y91.86
G1 F1200 X100.65 Y120.10 E185.77110
G0 F3600 X99.95 Y120.10
G1 F1200 X72.41 Y92.56 E188.19957
G0 F3600 X72.41 Y93.27
G1 F1200 X99.24 Y120.10 E190.56569
G0 F3600 X98.53 Y120.10
G1 F1200 X72.41 Y93.98 E192.86941
G0 F3600 X72.41 Y94.68
G1 F1200 X97.82 Y120.10 E195.11078
G0 F3600 X97.12 Y120.10
G1 F1200 X72.41 Y95.39 E197.28979
G0 F3600 X72.41 Y96.10
G1 F1200 X96.41 Y120.10 E199.40646
G0 F3600 X95.70 Y120.10
G1 F1200 X72.41 Y96.81 E201.46076
G0 F3600 X72.41 Y97.51
G1 F1200 X95.00 Y120.10 E203.45268
G0 F3600 X94.29 Y120.10
G1 F1200 X72.41 Y98.22 E205.38223
G0 F3600 X72.41 Y98.93
G1 F1200 X93.58 Y120.10 E207.24944
G0 F3600 X92.88 Y120.10
G1 F1200 X72.41 Y99.63 E209.05429
G0 F3600 X72.41 Y100.34
G1 F1200 X92.17 Y120.10 E210.79679
G0 F3600 X91.46 Y120.10
G1 F1200 X72.41 Y101.05 E212.47689
G0 F3600 X72.41 Y101.76
G1 F1200 X90.75 Y120.10 E214.09464
G0 F3600 X90.05 Y120.10
G1 F1200 X72.41 Y102.46 E215.65003
G0 F3600 X72.41 Y103.17
G1 F1200 X89.34 Y120.10 E217.14307
G0 F3600 X88.63 Y120.10
G1 F1200 X72.41 Y103.88 E218.57376
G0 F3600 X72.41 Y104.58
G1 F1200 X87.93 Y120.10 E219.94205
G0 F3600 X87.22 Y120.10
G1 F1200 X72.41 Y105.29 E221.24798
G0 F3600 X72.41 Y106.00
G1 F1200 X86.51 Y120.10 E222.49157
G0 F3600 X85.80 Y120.10
G1 F1200 X72.41 Y106.71 E223.67280
G0 F3600 X72.41 Y107.41
G1 F1200 X85.10 Y120.10 E224.79163
G0 F3600 X84.39 Y120.10
G1 F1200 X72.41 Y108.12 E225.84811
G0 F3600 X72.41 Y108.83
G1 F1200 X83.68 Y120.10 E226.84223
G0 F3600 X82.98 Y120.10
G1 F1200 X72.41 Y109.53 E227.77400
G0 F3600 X72.41 Y110.24
G1 F1200 X82.27 Y120.10 E228.64342
G0 F3600 X81.56 Y120.10
G1 F1200 X72.41 Y110.95 E229.45044
G0 F3600 X72.41 Y111.65
G1 F1200 X80.85 Y120.10 E230.19511
G0 F3600 X80.15 Y120.10
G1 F1200 X72.41 Y112.36 E230.87743
G0 F3600 X72.41 Y113.07
G1 F1200 X79.44 Y120.10 E231.49739
G0 F3600 X78.73 Y120.10
G1 F1200 X72.41 Y113.78 E232.05495
G0 F3600 X72.41 Y114.48
G1 F1200 X78.03 Y120.10 E232.55016
G0 F3600 X77.32 Y120.10
G1 F1200 X72.41 Y115.19 E232.98302
G0 F3600 X72.41 Y115.90
G1 F1200 X76.61 Y120.10 E233.35353
G0 F3600 X75.90 Y120.10
G1 F1200 X72.41 Y116.61 E233.66168
G0 F3600 X72.41 Y117.31
G1 F1200 X75.20 Y120.10 E233.90743
G0 F3600 X74.49 Y120.10
G1 F1200 X72.41 Y118.02 E234.09083
G0 F3600 X72.41 Y118.73
G1 F1200 X73.78 Y120.10 E234.21188
G0 F3600 X73.08 Y120.10
G1 F1200 X72.41 Y119.43 E234.27057
G0 F3600 X125.59 Y117.46
G1 F1200 X73.03 Y64.90 E238.90562
G0 F3600 X73.74 Y64.90
G1 F1200 X125.59 Y116.75 E243.47831
G0 F3600 X125.59 Y116.04
G1 F1200 X74.45 Y64.90 E247.98866
G0 F3600 X75.15 Y64.90
G1 F1200 X125.59 Y115.33 E252.43664
G0 F3600 X125.59 Y114.63
G1 F1200 X75.86 Y64.90 E256.82224
G0 F3600 X76.57 Y64.90
G1 F1200 X125.59 Y113.92 E261.14547
G0 F3600 X125.59 Y113.21
G1 F1200 X77.27 Y64.90 E265.40636
G0 F3600 X77.98 Y64.90
G1 F1200 X125.59 Y112.50 E269.60489
G0 F3600 X125.59 Y111.80
G1 F1200 X78.69 Y64.90 E273.74107
G0 F3600 X79.40 Y64.90
G1 F1200 X125.59 Y111.09 E277.81485
G0 F3600 X125.59 Y110.38
G1 F1200 X80.10 Y64.90 E281.82628
G0 F3600 X80.81 Y64.90
G1 F1200 X125.59 Y109.68 E285.77535
G0 F3600 X125.59 Y108.97
G1 F1200 X81.52 Y64.90 E289.66207
G0 F3600 X82.22 Y64.90
G1 F1200 X125.59 Y108.26 E293.48639
G0 F3600 X125.59 Y107.56
G1 F1200 X82.93 Y64.90 E297.24836
G0 F3600 X83.64 Y64.90
G1 F1200 X125.59 Y106.85 E300.94798
G0 F3600 X125.59 Y106.14
G1 F1200 X84.35 Y64.90 E304.58524
G0 F3600 X85.05 Y64.90
G1 F1200 X125.59 Y105.43 E308.16015
G0 F3600 X125.59 Y104.73
G1 F1200 X85.76 Y64.90 E311.67267
G0 F3600 X86.47 Y64.90
G1 F1200 X125.59 Y104.02 E315.12283
G0 F3600 X125.59 Y103.31
G1 F1200 X87.17 Y64.90 E318.51063
G0 F3600 X87.88 Y64.90
G1 F1200 X125.59 Y102.61 E321.83608
G0 F3600 X125.59 Y101.90
G1 F1200 X88.59 Y64.90 E325.09918
G0 F3600 X89.29 Y64.90
G1 F1200 X125.59 Y101.19 E328.29988
G0 F3600 X125.59 Y100.48
G1 F1200 X90.00 Y64.90 E331.43823
G0 F3600 X90.71 Y64.90
G1 F1200 X125.59 Y99.78 E334.51423
G0 F3600 X125.59 Y99.07
G1 F1200 X91.42 Y64.90 E337.52787
G0 F3600 X92.12 Y64.90
G1 F1200 X125.59 Y98.36 E340.47916
G0 F3600 X125.59 Y97.66
G1 F1200 X92.83 Y64.90 E343.36805
G0 F3600 X93.54 Y64.90
G1 F1200 X125.59 Y96.95 E346.19459
G0 F3600 X125.59 Y96.24
G1 F1200 X94.25 Y64.90 E348.95877
G0 F3600 X94.95 Y64.90
G1 F1200 X125.59 Y95.54 E351.66060
G0 F3600 X125.59 Y94.83
G1 F1200 X95.66 Y64.90 E354.30004
G0 F3600 X96.37 Y64.90
G1 F1200 X125.59 Y94.12 E356.87712
G0 F3600 X125.59 Y93.41
G1 F1200 X97.07 Y64.90 E359.39184
G0 F3600 X97.78 Y64.90
G1 F1200 X125.59 Y92.71 E361.84422
G0 F3600 X125.59 Y92.00
G1 F1200 X98.49 Y64.90 E364.23424
G0 F3600 X99.19 Y64.90
G1 F1200 X125.59 Y91.29 E366.56186
G0 F3600 X125.59 Y90.58
G1 F1200 X99.90 Y64.90 E368.82713
G0 F3600 X100.61 Y64.90
G1 F1200 X125.59 Y89.88 E371.03004
G0 F3600 X125.59 Y89.17
G1 F1200 X101.32 Y64.90 E373.17061
G0 F3600 X102.02 Y64.90
G1 F1200 X125.59 Y88.46 E375.24882
G0 F3600 X125.59 Y87.76
G1 F1200 X102.73 Y64.90 E377.26463
G0 F3600 X103.44 Y64.90
G1 F1200 X125.59 Y87.05 E379.21809
G0 F3600 X125.59 Y86.34
G1 F1200 X104.14 Y64.90 E381.10919
G0 F3600 X104.85 Y64.90
G1 F1200 X125.59 Y85.64 E382.93794
G0 F3600 X125.59 Y84.93
G1 F1200 X105.56 Y64.90 E384.70430
G0 F3600 X106.27 Y64.90
G1 F1200 X125.59 Y84.22 E386.40830
G0 F3600 X125.59 Y83.51
G1 F1200 X106.97 Y64.90 E388.04995
G0 F3600 X107.68 Y64.90
G1 F1200 X125.59 Y82.81 E389.62924
G0 F3600 X125.59 Y82.10
G1 F1200 X108.39 Y64.90 E391.14618
G0 F3600 X109.09 Y64.90
G1 F1200 X125.59 Y81.39 E392.60073
G0 F3600 X125.59 Y80.68
G1 F1200 X109.80 Y64.90 E393.99292
G0 F3600 X110.51 Y64.90
G1 F1200 X125.59 Y79.98 E395.32275
G0 F3600 X125.59 Y79.27
G1 F1200 X111.21 Y64.90 E396.59024
G0 F3600 X111.92 Y64.90
G1 F1200 X125.59 Y78.56 E397.79537
G0 F3600 X125.59 Y77.86
G1 F1200 X112.63 Y64.90 E398.93810
G0 F3600 X113.34 Y64.90
G1 F1200 X125.59 Y77.15 E400.01848
G0 F3600 X125.59 Y76.44
G1 F1200 X114.04 Y64.90 E401.03651
G0 F3600 X114.75 Y64.90
G1 F1200 X125.59 Y75.74 E401.99218
G0 F3600 X125.59 Y75.03
G1 F1200 X115.46 Y64.90 E402.88545
G0 F3600 X116.17 Y64.90
G1 F1200 X125.59 Y74.32 E403.71638
G0 F3600 X125.59 Y73.61
G1 F1200 X116.87 Y64.90 E404.48495
G0 F3600 X117.58 Y64.90
G1 F1200 X125.59 Y72.91 E405.19116
G0 F3600 X125.59 Y72.20
G1 F1200 X118.29 Y64.90 E405.83502
G0 F3600 X118.99 Y64.90
G1 F1200 X125.59 Y71.49 E406.41649
G0 F3600 X125.59 Y70.79
G1 F1200 X119.70 Y64.90 E406.93560
G0 F3600 X120.41 Y64.90
G1 F1200 X125.59 Y70.08 E407.39236
G0 F3600 X125.59 Y69.37
G1 F1200 X121.11 Y64.90 E407.78676
G0 F3600 X121.82 Y64.90
G1 F1200 X125.59 Y68.67 E408.11881
G0 F3600 X125.59 Y67.96
G1 F1200 X122.53 Y64.90 E408.38847
G0 F3600 X123.24 Y64.90
G1 F1200 X125.59 Y67.25 E408.59577
G0 F3600 X125.59 Y66.54
G1 F1200 X123.94 Y64.90 E408.74071
G0 F3600 X124.65 Y64.90
G1 F1200 X125.59 Y65.84 E408.82331
G0 F3600 X125.59 Y65.13
G1 F1200 X125.36 Y64.90 E408.84351
;LAYER:1
M106 S12
G0 F9000 X125.75 Y64.75 Z0.55
;TYPE:WALL-INNER
G1 F1620 X125.75 Y120.25 E411.72778
G1 X72.25 Y120.25 E414.50771
G1 X72.25 Y64.75 E417.39198
G1 X125.75 Y64.75 E420.17191
G0 F9000 X126.25 Y64.25
;TYPE:WALL-OUTER
G1 F1620 X126.25 Y120.75 E423.10815
G1 X71.75 Y120.75 E425.94005
G1 X71.75 Y64.25 E428.87629
G1 X126.25 Y64.25 E431.70819
G0 F9000 X125.59 Y64.97
;TYPE:FILL
G1 F1620 X72.40 Y118.16 E435.61743
G0 F9000 X72.40 Y118.87
G1 F1620 X125.59 Y65.68 E439.52668
G0 F9000 X125.59 Y66.38
G1 F1620 X72.40 Y119.57 E443.43593
G0 F9000 X72.59 Y120.10
G1 F1620 X125.59 Y67.09 E447.33176
G0 F9000 X125.59 Y67.80
G1 F1620 X73.29 Y120.10 E451.17563
G0 F9000 X74.00 Y120.10
G1 F1620 X125.59 Y68.50 E454.96754
G0 F9000 X125.59 Y69.21
G1 F1620 X74.71 Y120.10 E458.70746
G0 F9000 X75.42 Y120.10
G1 F1620 X125.59 Y69.92 E462.39537
G0 F9000 X125.59 Y70.63
G1 F1620 X76.12 Y120.10 E466.03133
G0 F9000 X76.83 Y120.10
G1 F1620 X125.59 Y71.33 E469.61532
G0 F9000 X125.59 Y72.04
G1 F1620 X77.54 Y120.10 E473.14736
G0 F9000 X78.24 Y120.10
G1 F1620 X125.59 Y72.75 E476.62743
G0 F9000 X125.59 Y73.46
G1 F1620 X78.95 Y120.10 E480.05554
G0 F9000 X79.66 Y120.10
G1 F1620 X125.59 Y74.16 E483.43169
G0 F9000 X125.59 Y74.87
G1 F1620 X80.36 Y120.10 E486.75588
G0 F9000 X81.07 Y120.10
G1 F1620 X125.59 Y75.58 E490.02810
G0 F9000 X125.59 Y76.28
G1 F1620 X81.78 Y120.10 E493.24830
G0 F9000 X82.49 Y120.10
G1 F1620 X125.59 Y76.99 E496.41653
G0 F9000 X125.59 Y77.70
G1 F1620 X83.19 Y120.10 E499.53280
G0 F9000 X83.90 Y120.10
G1 F1620 X125.59 Y78.40 E502.59711
G0 F9000 X125.59 Y79.11
G1 F1620 X84.61 Y120.10 E505.60946
G0 F9000 X85.31 Y120.10
G1 F1620 X125.59 Y79.82 E508.56984
G0 F9000 X125.59 Y80.53
G1 F1620 X86.02 Y120.10 E511.47827
G0 F9000 X86.73 Y120.10
G1 F1620 X125.59 Y81.23 E514.33473
G0 F9000 X125.59 Y81.94
G1 F1620 X87.43 Y120.10 E517.13924
G0 F9000 X88.14 Y120.10
G1 F1620 X125.59 Y82.65 E519.89174
G0 F9000 X125.59 Y83.36
G1 F1620 X88.85 Y120.10 E522.59225
G0 F9000 X89.56 Y120.10
G1 F1620 X125.59 Y84.06 E525.24080
G0 F9000 X125.59 Y84.77
G1 F1620 X90.26 Y120.10 E527.83738
G0 F9000 X90.97 Y120.10
G1 F1620 X125.59 Y85.48 E530.38201
G0 F9000 X125.59 Y86.18
G1 F1620 X91.68 Y120.10 E532.87467
G0 F9000 X92.39 Y120.10
G1 F1620 X125.59 Y86.89 E535.31537
G0 F9000 X125.59 Y87.60
G1 F1620 X93.09 Y120.10 E537.70412
G0 F9000 X93.80 Y120.10
G1 F1620 X125.59 Y88.30 E540.04090
G0 F9000 X125.59 Y89.01
G1 F1620 X94.51 Y120.10 E542.32568
G0 F9000 X95.21 Y120.10
G1 F1620 X125.59 Y89.72 E544.55846
G0 F9000 X125.59 Y90.43
G1 F1620 X95.92 Y120.10 E546.73929
G0 F9000 X96.63 Y120.10
G1 F1620 X125.59 Y91.13 E548.86815
G0 F9000 X125.59 Y91.84
G1 F1620 X97.33 Y120.10 E550.94505
G0 F9000 X98.04 Y120.10
G1 F1620 X125.59 Y92.55 E552.96999
G0 F9000 X125.59 Y93.25
G1 F1620 X98.75 Y120.10 E554.94297
G0 F9000 X99.46 Y120.10
G1 F1620 X125.59 Y93.96 E556.86399
G0 F9000 X125.59 Y94.67
G1 F1620 X100.16 Y120.10 E558.73304
G0 F9000 X100.87 Y120.10
G1 F1620 X125.59 Y95.38 E560.55014
G0 F9000 X125.59 Y96.08
G1 F1620 X101.58 Y120.10 E562.31520
G0 F9000 X102.29 Y120.10
G1 F1620 X125.59 Y96.79 E564.02830
G0 F9000 X125.59 Y97.50
G1 F1620 X102.99 Y120.10 E565.68944
G0 F9000 X103.70 Y120.10
G1 F1620 X125.59 Y98.20 E567.29862
G0 F9000 X125.59 Y98.91
G1 F1620 X104.41 Y120.10 E568.85583
G0 F9000 X105.11 Y120.10
G1 F1620 X125.59 Y99.62 E570.36109
G0 F9000 X125.59 Y100.32
G1 F1620 X105.82 Y120.10 E571.81438
G0 F9000 X106.53 Y120.10
G1 F1620 X125.59 Y101.03 E573.21571
G0 F9000 X125.59 Y101.74
G1 F1620 X107.23 Y120.10 E574.56509
G0 F9000 X107.94 Y120.10
G1 F1620 X125.59 Y102.45 E575.86246
G0 F9000 X125.59 Y103.15
G1 F1620 X108.65 Y120.10 E577.10784
G0 F9000 X109.36 Y120.10
G1 F1620 X125.59 Y103.86 E578.30125
G0 F9000 X125.59 Y104.57
G1 F1620 X110.06 Y120.10 E579.44271
G0 F9000 X110.77 Y120.10
G1 F1620 X125.59 Y105.28 E580.53220
G0 F9000 X125.59 Y105.98
G1 F1620 X111.48 Y120.10 E581.56973
G0 F9000 X112.18 Y120.10
G1 F1620 X125.59 Y106.69 E582.55530
G0 F9000 X125.59 Y107.40
G1 F1620 X112.89 Y120.10 E583.48891
G0 F9000 X113.60 Y120.10
G1 F1620 X125.59 Y108.10 E584.37056
G0 F9000 X125.59 Y108.81
G1 F1620 X114.31 Y120.10 E585.20021
G0 F9000 X115.01 Y120.10
G1 F1620 X125.59 Y109.52 E585.97786
G0 F9000 X125.59 Y110.22
G1 F1620 X115.72 Y120.10 E586.70356
G0 F9000 X116.43 Y120.10
G1 F1620 X125.59 Y110.93 E587.37729
G0 F9000 X125.59 Y111.64
G1 F1620 X117.13 Y120.10 E587.99906
G0 F9000 X117.84 Y120.10
G1 F1620 X125.59 Y112.35 E588.56886
G0 F9000 X125.59 Y113.05
G1 F1620 X118.55 Y120.10 E589.08671
G0 F9000 X119.25 Y120.10
G1 F1620 X125.59 Y113.76 E589.55260
G0 F9000 X125.59 Y114.47
G1 F1620 X119.96 Y120.10 E589.96652
G0 F9000 X120.67 Y120.10
G1 F1620 X125.59 Y115.17 E590.32849
G0 F9000 X125.59 Y115.88
G1 F1620 X121.38 Y120.10 E590.63842
G0 F9000 X122.08 Y120.10
G1 F1620 X125.59 Y116.59 E590.89638
G0 F9000 X125.59 Y117.30
G1 F1620 X122.79 Y120.10 E591.10239
G0 F9000 X123.50 Y120.10
G1 F1620 X125.59 Y118.00 E591.25644
G0 F9000 X125.59 Y118.71
G1 F1620 X124.21 Y120.10 E591.35852
G0 F9000 X124.91 Y120.10
G1 F1620 X125.59 Y119.42 E591.40865
G0 F9000 X72.40 Y117.45
G1 F1620 X124.96 Y64.90 E595.27111
G0 F9000 X124.25 Y64.90
G1 F1620 X72.40 Y116.75 E599.08162
G0 F9000 X72.40 Y116.04
G1 F1620 X123.54 Y64.90 E602.84016
G0 F9000 X122.84 Y64.90
G1 F1620 X72.40 Y115.33 E606.54675
G0 F9000 X72.40 Y114.62
G1 F1620 X122.13 Y64.90 E610.20137
G0 F9000 X121.42 Y64.90
G1 F1620 X72.40 Y113.92 E613.80400
G0 F9000 X72.40 Y113.21
G1 F1620 X120.71 Y64.90 E617.35466
G0 F9000 X120.01 Y64.90
G1 F1620 X72.40 Y112.50 E620.85336
G0 F9000 X72.40 Y111.80
