;Generated with Cura_SteamEngine 13.11.2
M140 S85.000000
M109 T0 S225.000000
T0
M190 S85.000000
;Sliced at: Tue 04-10-2016 13:42:10
;Basic settings: Layer height: 0.25 Walls: 1 Fill: 35
;Print time: #P_TIME#
;Filament used: #F_AMNT#m #F_WGHT#g
;Filament cost: #F_COST#
;M190 S85 ;Uncomment to add your own bed temperature line
;M109 S225 ;Uncomment to add your own temperature line
G21        ;metric values
G90        ;absolute positioning
M107       ;start with the fan off
G28 X0 Y0  ;move X/Y to min endstops
G28 Z0     ;move Z to min endstops
G1 Z15.0 F9000 ;move the platform down 15mm
G92 E0                  ;zero the extruded length
G1 F200 E3              ;extrude 3mm of feed stock
G92 E0                  ;zero the extruded length again
G1 F9000
;Put printing message on LCD screen
M117 Printing...

;Layer count: 136
;LAYER:0
M107
G0 F3600 X55.65 Y61.25 Z0.30
;TYPE:SKIRT
G1 F2400 E0.00000
G1 F1200 X142.35 Y61.25 E5.40641
G1 X144.25 Y63.15 E5.57429
G1 X144.25 Y121.85 E9.23455
G1 X142.35 Y123.75 E9.40247
G1 X55.65 Y123.75 E14.80889
G1 X53.75 Y121.85 E14.97676
G1 X53.75 Y63.15 E18.63702
G1 X55.65 Y61.25 E18.80485
G0 F3600 X57.51 Y65.10
G0 X57.75 Y65.25
;TYPE:WALL-INNER
G1 F1200 X140.25 Y65.25 E23.94978
G1 X140.25 Y119.75 E27.34855
G1 X57.75 Y119.75 E32.49348
G1 X57.75 Y65.25 E35.89225
G0 F3600 X57.25 Y64.75
;TYPE:WALL-OUTER
G1 F1200 X140.75 Y64.75 E41.09954
G1 X140.75 Y120.25 E44.56067
G1 X57.25 Y120.25 E49.76796
G1 X57.25 Y64.75 E53.22909
G0 F3600 X57.97 Y65.40
;TYPE:FILL
G1 F1200 X112.17 Y119.60 E58.00922
G0 F3600 X111.47 Y119.60
G1 F1200 X57.90 Y66.03 E62.73357
G0 F3600 X57.90 Y66.74
G1 F1200 X110.76 Y119.60 E67.39556
G0 F3600 X110.05 Y119.60
G1 F1200 X57.90 Y67.44 E71.99520
G0 F3600 X57.90 Y68.15
G1 F1200 X109.35 Y119.60 E76.53244
G0 F3600 X108.64 Y119.60
G1 F1200 X57.90 Y68.86 E81.00733
G0 F3600 X57.90 Y69.57
G1 F1200 X107.93 Y119.60 E85.41986
G0 F3600 X107.22 Y119.60
G1 F1200 X57.90 Y70.27 E89.77000
G0 F3600 X57.90 Y70.98
G1 F1200 X106.52 Y119.60 E94.05778
G0 F3600 X105.81 Y119.60
G1 F1200 X57.90 Y71.69 E98.28321
G0 F3600 X57.90 Y72.39
G1 F1200 X105.10 Y119.60 E102.44629
G0 F3600 X104.40 Y119.60
G1 F1200 X57.90 Y73.10 E106.54702
G0 F3600 X57.90 Y73.81
G1 F1200 X103.69 Y119.60 E110.58539
G0 F3600 X102.98 Y119.60
G1 F1200 X57.90 Y74.52 E114.56136
G0 F3600 X57.90 Y75.22
G1 F1200 X102.28 Y119.60 E118.47498
G0 F3600 X101.57 Y119.60
G1 F1200 X57.90 Y75.93 E122.32625
G0 F3600 X57.90 Y76.64
G1 F1200 X100.86 Y119.60 E126.11516
G0 F3600 X100.15 Y119.60
G1 F1200 X57.90 Y77.35 E129.84168
G0 F3600 X57.90 Y78.05
G1 F1200 X99.45 Y119.60 E133.50584
G0 F3600 X98.74 Y119.60
G1 F1200 X57.90 Y78.76 E137.10765
G0 F3600 X57.90 Y79.47
G1 F1200 X98.03 Y119.60 E140.64710
G0 F3600 X97.32 Y119.60
G1 F1200 X57.90 Y80.17 E144.12421
G0 F3600 X57.90 Y80.88
G1 F1200 X96.62 Y119.60 E147.53895
G0 F3600 X95.91 Y119.60
G1 F1200 X57.90 Y81.59 E150.89131
G0 F3600 X57.90 Y82.29
G1 F1200 X95.20 Y119.60 E154.18130
G0 F3600 X94.50 Y119.60
G1 F1200 X57.90 Y83.00 E157.40895
G0 F3600 X57.90 Y83.71
G1 F1200 X93.79 Y119.60 E160.57420
G0 F3600 X93.08 Y119.60
G1 F1200 X57.90 Y84.42 E163.67709
G0 F3600 X57.90 Y85.12
G1 F1200 X92.38 Y119.60 E166.71763
G0 F3600 X91.67 Y119.60
G1 F1200 X57.90 Y85.83 E169.69582
G0 F3600 X57.90 Y86.54
G1 F1200 X90.96 Y119.60 E172.61165
G0 F3600 X90.25 Y119.60
G1 F1200 X57.90 Y87.24 E175.46514
G0 F3600 X57.90 Y87.95
G1 F1200 X89.55 Y119.60 E178.25622
G0 F3600 X88.84 Y119.60
G1 F1200 X57.90 Y88.66 E180.98495
G0 F3600 X57.90 Y89.37
G1 F1200 X88.13 Y119.60 E183.65133
G0 F3600 X87.43 Y119.60
G1 F1200 X57.90 Y90.07 E186.25530
G0 F3600 X57.90 Y90.78
G1 F1200 X86.72 Y119.60 E188.79693
G0 F3600 X86.01 Y119.60
G1 F1200 X57.90 Y91.49 E191.27620
G0 F3600 X57.90 Y92.19
G1 F1200 X85.30 Y119.60 E193.69312
G0 F3600 X84.60 Y119.60
G1 F1200 X57.90 Y92.90 E196.04769
G0 F3600 X57.90 Y93.61
G1 F1200 X83.89 Y119.60 E198.33990
G0 F3600 X83.18 Y119.60
G1 F1200 X57.90 Y94.32 E200.56972
G0 F3600 X57.90 Y95.02
G1 F1200 X82.48 Y119.60 E202.73718
G0 F3600 X81.77 Y119.60
G1 F1200 X57.90 Y95.73 E204.84229
G0 F3600 X57.90 Y96.44
G1 F1200 X81.06 Y119.60 E206.88504
G0 F3600 X80.35 Y119.60
G1 F1200 X57.90 Y97.14 E208.86540
G0 F3600 X57.90 Y97.85
G1 F1200 X79.65 Y119.60 E210.78340
G0 F3600 X78.94 Y119.60
G1 F1200 X57.90 Y98.56 E212.63906
G0 F3600 X57.90 Y99.26
G1 F1200 X78.23 Y119.60 E214.43235
G0 F3600 X77.53 Y119.60
G1 F1200 X57.90 Y99.97 E216.16330
G0 F3600 X57.90 Y100.68
G1 F1200 X76.82 Y119.60 E217.83189
G0 F3600 X76.11 Y119.60
G1 F1200 X57.90 Y101.39 E219.43808
G0 F3600 X57.90 Y102.09
G1 F1200 X75.40 Y119.60 E220.98192
G0 F3600 X74.70 Y119.60
G1 F1200 X57.90 Y102.80 E222.46341
G0 F3600 X57.90 Y103.51
G1 F1200 X73.99 Y119.60 E223.88250
G0 F3600 X73.28 Y119.60
G1 F1200 X57.90 Y104.21 E225.23924
G0 F3600 X57.90 Y104.92
G1 F1200 X72.58 Y119.60 E226.53362
G0 F3600 X71.87 Y119.60
G1 F1200 X57.90 Y105.63 E227.76565
G0 F3600 X57.90 Y106.34
G1 F1200 X71.16 Y119.60 E228.93533
G0 F3600 X70.46 Y119.60
G1 F1200 X57.90 Y107.04 E230.04265
G0 F3600 X57.90 Y107.75
G1 F1200 X69.75 Y119.60 E231.08757
G0 F3600 X69.04 Y119.60
G1 F1200 X57.90 Y108.46 E232.07015
G0 F3600 X57.90 Y109.17
G1 F1200 X68.33 Y119.60 E232.99036
G0 F3600 X67.63 Y119.60
G1 F1200 X57.90 Y109.87 E233.84819
G0 F3600 X57.90 Y110.58
G1 F1200 X66.92 Y119.60 E234.64365
G0 F3600 X66.21 Y119.60
G1 F1200 X57.90 Y111.29 E235.37677
G0 F3600 X57.90 Y111.99
G1 F1200 X65.50 Y119.60 E236.04753
G0 F3600 X64.80 Y119.60
G1 F1200 X57.90 Y112.70 E236.65594
G0 F3600 X57.90 Y113.41
G1 F1200 X64.09 Y119.60 E237.20199
G0 F3600 X63.38 Y119.60
G1 F1200 X57.90 Y114.11 E237.68565
G0 F3600 X57.90 Y114.82
G1 F1200 X62.68 Y119.60 E238.10695
G0 F3600 X61.97 Y119.60
G1 F1200 X57.90 Y115.53 E238.46590
G0 F3600 X57.90 Y116.24
G1 F1200 X61.26 Y119.60 E238.76250
G0 F3600 X60.56 Y119.60
G1 F1200 X57.90 Y116.94 E238.99670
G0 F3600 X57.90 Y117.65
G1 F1200 X59.85 Y119.60 E239.16855
G0 F3600 X59.14 Y119.60
G1 F1200 X57.90 Y118.36 E239.27804
G0 F3600 X57.90 Y119.06
G1 F1200 X58.43 Y119.60 E239.32518
G0 F3600 X58.68 Y65.40
G1 F1200 X112.88 Y119.60 E244.10527
G0 F3600 X113.59 Y119.60
G1 F1200 X59.39 Y65.40 E248.88535
G0 F3600 X60.10 Y65.40
G1 F1200 X114.30 Y119.60 E253.66548
G0 F3600 X115.00 Y119.60
G1 F1200 X60.80 Y65.40 E258.44561
G0 F3600 X61.51 Y65.40
G1 F1200 X115.71 Y119.60 E263.22574
G0 F3600 X116.42 Y119.60
G1 F1200 X62.22 Y65.40 E268.00586
G0 F3600 X62.92 Y65.40
G1 F1200 X117.12 Y119.60 E272.78599
G0 F3600 X117.83 Y119.60
G1 F1200 X63.63 Y65.40 E277.56612
G0 F3600 X64.34 Y65.40
G1 F1200 X118.54 Y119.60 E282.34625
G0 F3600 X119.25 Y119.60
G1 F1200 X65.05 Y65.40 E287.12633
G0 F3600 X65.75 Y65.40
G1 F1200 X119.95 Y119.60 E291.90642
G0 F3600 X120.66 Y119.60
G1 F1200 X66.46 Y65.40 E296.68650
G0 F3600 X67.17 Y65.40
G1 F1200 X121.37 Y119.60 E301.46663
G0 F3600 X122.07 Y119.60
G1 F1200 X67.87 Y65.40 E306.24676
G0 F3600 X68.58 Y65.40
G1 F1200 X122.78 Y119.60 E311.02689
G0 F3600 X123.49 Y119.60
G1 F1200 X69.29 Y65.40 E315.80702
G0 F3600 X70.00 Y65.40
G1 F1200 X124.19 Y119.60 E320.58714
G0 F3600 X124.90 Y119.60
G1 F1200 X70.70 Y65.40 E325.36727
G0 F3600 X71.41 Y65.40
G1 F1200 X125.61 Y119.60 E330.14736
G0 F3600 X126.32 Y119.60
G1 F1200 X72.12 Y65.40 E334.92744
G0 F3600 X72.82 Y65.40
G1 F1200 X127.02 Y119.60 E339.70753
G0 F3600 X127.73 Y119.60
G1 F1200 X73.53 Y65.40 E344.48765
G0 F3600 X74.24 Y65.40
G1 F1200 X128.44 Y119.60 E349.26778
G0 F3600 X129.15 Y119.60
G1 F1200 X74.94 Y65.40 E354.04791
G0 F3600 X75.65 Y65.40
G1 F1200 X129.85 Y119.60 E358.82804
G0 F3600 X130.56 Y119.60
G1 F1200 X76.36 Y65.40 E363.60817
G0 F3600 X77.07 Y65.40
G1 F1200 X131.27 Y119.60 E368.38830
G0 F3600 X131.97 Y119.60
G1 F1200 X77.77 Y65.40 E373.16842
G0 F3600 X78.48 Y65.40
G1 F1200 X132.68 Y119.60 E377.94851
G0 F3600 X133.39 Y119.60
G1 F1200 X79.19 Y65.40 E382.72859
G0 F3600 X79.89 Y65.40
G1 F1200 X134.10 Y119.60 E387.50872
G0 F3600 X134.80 Y119.60
G1 F1200 X80.60 Y65.40 E392.28885
G0 F3600 X81.31 Y65.40
G1 F1200 X135.51 Y119.60 E397.06898
G0 F3600 X136.22 Y119.60
G1 F1200 X82.02 Y65.40 E401.84911
G0 F3600 X82.72 Y65.40
G1 F1200 X136.92 Y119.60 E406.62924
G0 F3600 X137.63 Y119.60
G1 F1200 X83.43 Y65.40 E411.40936
G0 F3600 X84.14 Y65.40
G1 F1200 X138.34 Y119.60 E416.18949
G0 F3600 X139.04 Y119.60
G1 F1200 X84.85 Y65.40 E420.96958
G0 F3600 X85.55 Y65.40
G1 F1200 X139.75 Y119.60 E425.74966
G0 F3600 X140.10 Y119.24
G1 F1200 X86.26 Y65.40 E430.49804
G0 F3600 X86.97 Y65.40
G1 F1200 X140.10 Y118.53 E435.18406
G0 F3600 X140.10 Y117.82
G1 F1200 X87.67 Y65.40 E439.80774
G0 F3600 X88.38 Y65.40
G1 F1200 X140.10 Y117.12 E444.36905
G0 F3600 X140.10 Y116.41
G1 F1200 X89.09 Y65.40 E448.86798
G0 F3600 X89.79 Y65.40
G1 F1200 X140.10 Y115.70 E453.30454
G0 F3600 X140.10 Y115.00
G1 F1200 X90.50 Y65.40 E457.67876
G0 F3600 X91.21 Y65.40
G1 F1200 X140.10 Y114.29 E461.99062
G0 F3600 X140.10 Y113.58
G1 F1200 X91.92 Y65.40 E466.24008
G0 F3600 X92.62 Y65.40
G1 F1200 X140.10 Y112.88 E470.42719
G0 F3600 X140.10 Y112.17
G1 F1200 X93.33 Y65.40 E474.55195
G0 F3600 X94.04 Y65.40
G1 F1200 X140.10 Y111.46 E478.61435
G0 F3600 X140.10 Y110.75
G1 F1200 X94.74 Y65.40 E482.61440
G0 F3600 X95.45 Y65.40
G1 F1200 X140.10 Y110.05 E486.55210
G0 F3600 X140.10 Y109.34
G1 F1200 X96.16 Y65.40 E490.42740
G0 F3600 X96.86 Y65.40
G1 F1200 X140.10 Y108.63 E494.24035
G0 F3600 X140.10 Y107.93
G1 F1200 X97.57 Y65.40 E497.99094
G0 F3600 X98.28 Y65.40
G1 F1200 X140.10 Y107.22 E501.67913
G0 F3600 X140.10 Y106.51
G1 F1200 X98.99 Y65.40 E505.30498
G0 F3600 X99.69 Y65.40
G1 F1200 X140.10 Y105.80 E508.86847
G0 F3600 X140.10 Y105.10
G1 F1200 X100.40 Y65.40 E512.36960
G0 F3600 X101.11 Y65.40
G1 F1200 X140.10 Y104.39 E515.80838
G0 F3600 X140.10 Y103.68
G1 F1200 X101.82 Y65.40 E519.18481
G0 F3600 X102.52 Y65.40
G1 F1200 X140.10 Y102.97 E522.49884
G0 F3600 X140.10 Y102.27
G1 F1200 X103.23 Y65.40 E525.75052
G0 F3600 X103.94 Y65.40
G1 F1200 X140.10 Y101.56 E528.93985
G0 F3600 X140.10 Y100.85
G1 F1200 X104.64 Y65.40 E532.06677
G0 F3600 X105.35 Y65.40
G1 F1200 X140.10 Y100.15 E535.13135
G0 F3600 X140.10 Y99.44
G1 F1200 X106.06 Y65.40 E538.13357
G0 F3600 X106.76 Y65.40
G1 F1200 X140.10 Y98.73 E541.07343
G0 F3600 X140.10 Y98.03
G1 F1200 X107.47 Y65.40 E543.95095
G0 F3600 X108.18 Y65.40
G1 F1200 X140.10 Y97.32 E546.76611
G0 F3600 X140.10 Y96.61
G1 F1200 X108.89 Y65.40 E549.51887
G0 F3600 X109.59 Y65.40
G1 F1200 X140.10 Y95.90 E552.20928
G0 F3600 X140.10 Y95.20
G1 F1200 X110.30 Y65.40 E554.83734
G0 F3600 X111.01 Y65.40
G1 F1200 X140.10 Y94.49 E557.40304
G0 F3600 X140.10 Y93.78
G1 F1200 X111.71 Y65.40 E559.90635
G0 F3600 X112.42 Y65.40
G1 F1200 X140.10 Y93.08 E562.34730
G0 F3600 X140.10 Y92.37
G1 F1200 X113.13 Y65.40 E564.72590
G0 F3600 X113.84 Y65.40
G1 F1200 X140.10 Y91.66 E567.04214
G0 F3600 X140.10 Y90.96
G1 F1200 X114.54 Y65.40 E569.29604
G0 F3600 X115.25 Y65.40
G1 F1200 X140.10 Y90.25 E571.48757
G0 F3600 X140.10 Y89.54
G1 F1200 X115.96 Y65.40 E573.61672
G0 F3600 X116.66 Y65.40
G1 F1200 X140.10 Y88.83 E575.68350
G0 F3600 X140.10 Y88.13
G1 F1200 X117.37 Y65.40 E577.68794
G0 F3600 X118.08 Y65.40
G1 F1200 X140.10 Y87.42 E579.62998
G0 F3600 X140.10 Y86.71
G1 F1200 X118.79 Y65.40 E581.50966
G0 F3600 X119.49 Y65.40
G1 F1200 X140.10 Y86.00 E583.32699
G0 F3600 X140.10 Y85.30
G1 F1200 X120.20 Y65.40 E585.08197
G0 F3600 X120.91 Y65.40
G1 F1200 X140.10 Y84.59 E586.77459
G0 F3600 X140.10 Y83.88
G1 F1200 X121.61 Y65.40 E588.40486
G0 F3600 X122.32 Y65.40
G1 F1200 X140.10 Y83.18 E589.97274
G0 F3600 X140.10 Y82.47
G1 F1200 X123.03 Y65.40 E591.47826
G0 F3600 X123.74 Y65.40
G1 F1200 X140.10 Y81.76 E592.92142
G0 F3600 X140.10 Y81.06
G1 F1200 X124.44 Y65.40 E594.30219
G0 F3600 X125.15 Y65.40
G1 F1200 X140.10 Y80.35 E595.62061
G0 F3600 X140.10 Y79.64
G1 F1200 X125.86 Y65.40 E596.87667
G0 F3600 X126.56 Y65.40
G1 F1200 X140.10 Y78.93 E598.07038
G0 F3600 X140.10 Y78.23
G1 F1200 X127.27 Y65.40 E599.20174
G0 F3600 X127.98 Y65.40
G1 F1200 X140.10 Y77.52 E600.27074
G0 F3600 X140.10 Y76.81
G1 F1200 X128.68 Y65.40 E601.27739
G0 F3600 X129.39 Y65.40
G1 F1200 X140.10 Y76.11 E602.22164
G0 F3600 X140.10 Y75.40
G1 F1200 X130.10 Y65.40 E603.10354
G0 F3600 X130.81 Y65.40
G1 F1200 X140.10 Y74.69 E603.92308
G0 F3600 X140.10 Y73.98
G1 F1200 X131.51 Y65.40 E604.68023
G0 F3600 X132.22 Y65.40
G1 F1200 X140.10 Y73.28 E605.37502
G0 F3600 X140.10 Y72.57
G1 F1200 X132.93 Y65.40 E606.00747
G0 F3600 X133.63 Y65.40
G1 F1200 X140.10 Y71.86 E606.57755
G0 F3600 X140.10 Y71.16
G1 F1200 X134.34 Y65.40 E607.08529
G0 F3600 X135.05 Y65.40
G1 F1200 X140.10 Y70.45 E607.53067
G0 F3600 X140.10 Y69.74
G1 F1200 X135.76 Y65.40 E607.91365
G0 F3600 X136.46 Y65.40
G1 F1200 X140.10 Y69.03 E608.23428
G0 F3600 X140.10 Y68.33
G1 F1200 X137.17 Y65.40 E608.49256
G0 F3600 X137.88 Y65.40
G1 F1200 X140.10 Y67.62 E608.68844
G0 F3600 X140.10 Y66.91
G1 F1200 X138.59 Y65.40 E608.82196
G0 F3600 X139.29 Y65.40
G1 F1200 X140.10 Y66.21 E608.89314
G0 F3600 X140.10 Y65.50
G1 F1200 X140.00 Y65.40 E608.90196
;LAYER:1
M106 S12
G0 F9000 X140.25 Y65.25 Z0.55
;TYPE:WALL-INNER
G1 F1620 X140.25 Y119.75 E611.73427
G1 X57.75 Y119.75 E616.02170
G1 X57.75 Y65.25 E618.85401
G1 X140.25 Y65.25 E623.14145
G0 F9000 X140.75 Y64.75
;TYPE:WALL-OUTER
G1 F1620 X140.75 Y120.25 E626.02573
G1 X57.25 Y120.25 E630.36514
G1 X57.25 Y64.75 E633.24942
G1 X140.75 Y64.75 E637.58882
G0 F9000 X140.01 Y65.40
;TYPE:FILL
G1 F1620 X85.81 Y119.60 E641.57230
G0 F9000 X86.52 Y119.60
G1 F1620 X140.10 Y66.02 E645.51003
G0 F9000 X140.10 Y66.73
G1 F1620 X87.23 Y119.60 E649.39579
G0 F9000 X87.93 Y119.60
G1 F1620 X140.10 Y67.44 E653.22960
G0 F9000 X140.10 Y68.14
G1 F1620 X88.64 Y119.60 E657.01144
G0 F9000 X89.35 Y119.60
G1 F1620 X140.10 Y68.85 E660.74128
G0 F9000 X140.10 Y69.56
G1 F1620 X90.06 Y119.60 E664.41913
G0 F9000 X90.76 Y119.60
G1 F1620 X140.10 Y70.26 E668.04502
G0 F9000 X140.10 Y70.97
G1 F1620 X91.47 Y119.60 E671.61894
G0 F9000 X92.18 Y119.60
G1 F1620 X140.10 Y71.68 E675.14091
G0 F9000 X140.10 Y72.39
G1 F1620 X92.89 Y119.60 E678.61091
G0 F9000 X93.59 Y119.60
G1 F1620 X140.10 Y73.09 E682.02895
G0 F9000 X140.10 Y73.80
G1 F1620 X94.30 Y119.60 E685.39503
G0 F9000 X95.01 Y119.60
G1 F1620 X140.10 Y74.51 E688.70915
G0 F9000 X140.10 Y75.21
G1 F1620 X95.71 Y119.60 E691.97131
G0 F9000 X96.42 Y119.60
G1 F1620 X140.10 Y75.92 E695.18143
G0 F9000 X140.10 Y76.63
G1 F1620 X97.13 Y119.60 E698.33960
G0 F9000 X97.83 Y119.60
G1 F1620 X140.10 Y77.34 E701.44580
G0 F9000 X140.10 Y78.04
G1 F1620 X98.54 Y119.60 E704.50004
G0 F9000 X99.25 Y119.60
G1 F1620 X140.10 Y78.75 E707.50232
G0 F9000 X140.10 Y79.46
G1 F1620 X99.96 Y119.60 E710.45264
G0 F9000 X100.66 Y119.60
G1 F1620 X140.10 Y80.16 E713.35099
G0 F9000 X140.10 Y80.87
G1 F1620 X101.37 Y119.60 E716.19739
G0 F9000 X102.08 Y119.60
G1 F1620 X140.10 Y81.58 E718.99182
G0 F9000 X140.10 Y82.29
G1 F1620 X102.79 Y119.60 E721.73422
G0 F9000 X103.49 Y119.60
G1 F1620 X140.10 Y82.99 E724.42466
G0 F9000 X140.10 Y83.70
G1 F1620 X104.20 Y119.60 E727.06314
G0 F9000 X104.91 Y119.60
G1 F1620 X140.10 Y84.41 E729.64966
G0 F9000 X140.10 Y85.11
G1 F1620 X105.61 Y119.60 E732.18421
G0 F9000 X106.32 Y119.60
G1 F1620 X140.10 Y85.82 E734.66681
G0 F9000 X140.10 Y86.53
G1 F1620 X107.03 Y119.60 E737.09744
G0 F9000 X107.73 Y119.60
G1 F1620 X140.10 Y87.24 E739.47611
G0 F9000 X140.10 Y87.94
G1 F1620 X108.44 Y119.60 E741.80283
G0 F9000 X109.15 Y119.60
G1 F1620 X140.10 Y88.65 E744.07754
G0 F9000 X140.10 Y89.36
G1 F1620 X109.86 Y119.60 E746.30025
G0 F9000 X110.56 Y119.60
G1 F1620 X140.10 Y90.06 E748.47101
G0 F9000 X140.10 Y90.77
G1 F1620 X111.27 Y119.60 E750.58980
G0 F9000 X111.98 Y119.60
G1 F1620 X140.10 Y91.48 E752.65664
G0 F9000 X140.10 Y92.18
G1 F1620 X112.68 Y119.60 E754.67151
G0 F9000 X113.39 Y119.60
G1 F1620 X140.10 Y92.89 E756.63442
G0 F9000 X140.10 Y93.60
G1 F1620 X114.10 Y119.60 E758.54537
G0 F9000 X114.81 Y119.60
G1 F1620 X140.10 Y94.31 E760.40435
G0 F9000 X140.10 Y95.01
G1 F1620 X115.51 Y119.60 E762.21138
G0 F9000 X116.22 Y119.60
G1 F1620 X140.10 Y95.72 E763.96637
G0 F9000 X140.10 Y96.43
G1 F1620 X116.93 Y119.60 E765.66940
G0 F9000 X117.63 Y119.60
G1 F1620 X140.10 Y97.14 E767.32047
G0 F9000 X140.10 Y97.84
G1 F1620 X118.34 Y119.60 E768.91958
