;Generated with Cura_SteamEngine 13.11.2
M140 S85.000000
M109 T0 S225.000000
T0
M190 S85.000000
;Sliced at: Tue 04-10-2016 16:28:55
;Basic settings: Layer height: 0.25 Walls: 1 Fill: 35
;Print time: #P_TIME#
;Filament used: #F_AMNT#m #F_WGHT#g
;Filament cost: #F_COST#
;M190 S85 ;Uncomment to add your own bed temperature line
;M109 S225 ;Uncomment to add your own temperature line
G21        ;metric values
G90        ;absolute positioning
M107       ;start with the fan off
G28 X0 Y0  ;move X/Y to min endstops
G28 Z0     ;move Z to min endstops
G1 Z15.0 F9000 ;move the platform down 15mm
G92 E0                  ;zero the extruded length
G1 F200 E3              ;extrude 3mm of feed stock
G92 E0                  ;zero the extruded length again
G1 F9000
;Put printing message on LCD screen
M117 Printing...

;Layer count: 8
;LAYER:0
M107
G0 F3600 X55.65 Y61.25 Z0.30
;TYPE:SKIRT
G1 F2400 E0.00000
G1 F1200 X142.35 Y61.25 E5.40641
G1 X144.25 Y63.15 E5.57429
G1 X144.25 Y121.85 E9.23455
G1 X142.35 Y123.75 E9.40247
G1 X55.65 Y123.75 E14.80889
G1 X53.75 Y121.85 E14.97676
G1 X53.75 Y63.15 E18.63702
G1 X55.65 Y61.25 E18.80485
G0 F3600 X57.51 Y65.10
G0 X57.75 Y65.25
;TYPE:WALL-INNER
G1 F1200 X140.25 Y65.25 E23.94978
G1 X140.25 Y119.75 E27.34855
G1 X57.75 Y119.75 E32.49348
G1 X57.75 Y65.25 E35.89225
G0 F3600 X59.32 Y66.98
G1 F1200 X59.04 Y67.38 E35.92261
G1 X59.04 Y69.62 E36.06293
G1 X59.32 Y70.02 E36.09329
G1 X61.46 Y70.71 E36.23363
G1 X61.93 Y70.57 E36.26404
G1 X63.25 Y68.74 E36.40446
G1 X63.25 Y68.26 E36.43483
G1 X61.93 Y66.43 E36.57520
G1 X61.46 Y66.29 E36.60561
G1 X59.32 Y66.98 E36.74594
G0 F3600 X61.46 Y66.35
G0 X61.89 Y66.49
G0 X105.75 Y74.30
G1 F1200 X105.75 Y74.70 E36.77095
G1 X107.20 Y77.21 E36.95203
G1 X107.55 Y77.42 E36.97714
G1 X110.45 Y77.42 E37.15806
G1 X110.80 Y77.21 E37.18317
G1 X112.25 Y74.70 E37.36425
G1 X112.25 Y74.30 E37.38925
G1 X110.80 Y71.79 E37.57027
G1 X110.45 Y71.58 E37.59536
G1 X107.55 Y71.58 E37.77627
G1 X107.20 Y71.79 E37.80136
G1 X105.75 Y74.30 E37.98238
G0 F3600 X107.55 Y78.58
G1 F1200 X107.20 Y78.79 E38.00746
G1 X105.75 Y81.30 E38.18848
G1 X105.75 Y81.70 E38.21349
G1 X107.20 Y84.21 E38.39456
G1 X107.55 Y84.42 E38.41968
G1 X110.45 Y84.42 E38.60059
G1 X110.80 Y84.21 E38.62571
G1 X112.25 Y81.70 E38.80678
G1 X112.25 Y81.30 E38.83179
G1 X110.80 Y78.79 E39.01281
G1 X110.45 Y78.58 E39.03790
G1 X107.55 Y78.58 E39.21881
G0 F3600 X110.76 Y78.83
G0 X112.19 Y81.68
G0 X110.43 Y84.36
G0 X107.55 Y85.58
G1 F1200 X107.20 Y85.79 E39.24389
G1 X105.75 Y88.30 E39.42491
G1 X105.75 Y88.70 E39.44992
G1 X107.20 Y91.21 E39.63100
G1 X107.55 Y91.42 E39.65611
G1 X110.45 Y91.42 E39.83703
G1 X110.80 Y91.21 E39.86214
G1 X112.25 Y88.70 E40.04322
G1 X112.25 Y88.30 E40.06822
G1 X110.80 Y85.79 E40.24924
G1 X110.45 Y85.58 E40.27433
G1 X107.55 Y85.58 E40.45524
G0 F3600 X110.76 Y85.83
G0 X112.19 Y88.68
G0 X110.43 Y91.36
G0 X107.55 Y92.58
G1 F1200 X107.20 Y92.78 E40.48033
G1 X105.75 Y95.30 E40.66140
G1 X105.75 Y95.70 E40.68641
G1 X107.20 Y98.21 E40.86743
G1 X107.55 Y98.42 E40.89254
G1 X110.45 Y98.42 E41.07346
G1 X110.80 Y98.21 E41.09857
G1 X112.25 Y95.70 E41.27959
G1 X112.25 Y95.30 E41.30460
G1 X110.80 Y92.78 E41.48568
G1 X110.45 Y92.58 E41.51076
G1 X107.55 Y92.58 E41.69168
G0 F3600 X110.76 Y92.83
G0 X112.75 Y95.30
G1 F1200 X112.75 Y95.70 E41.71668
G1 X114.20 Y98.21 E41.89770
G1 X114.55 Y98.42 E41.92282
G1 X117.45 Y98.42 E42.10373
G1 X117.80 Y98.21 E42.12885
G1 X119.25 Y95.70 E42.30987
G1 X119.25 Y95.30 E42.33488
G1 X117.80 Y92.78 E42.51595
G1 X117.45 Y92.58 E42.54103
G1 X114.55 Y92.58 E42.72195
G1 X114.20 Y92.78 E42.74703
G1 X112.75 Y95.30 E42.92811
G0 F3600 X114.55 Y99.58
G1 F1200 X114.20 Y99.78 E42.95319
G1 X112.75 Y102.30 E43.13427
G1 X112.75 Y102.70 E43.15927
G1 X114.20 Y105.21 E43.34029
G1 X114.55 Y105.42 E43.36541
G1 X117.45 Y105.42 E43.54632
G1 X117.80 Y105.21 E43.57144
G1 X119.25 Y102.70 E43.75246
G1 X119.25 Y102.30 E43.77747
G1 X117.80 Y99.78 E43.95854
G1 X117.45 Y99.58 E43.98363
G1 X114.55 Y99.58 E44.16454
G0 F3600 X117.76 Y99.83
G0 X119.19 Y102.68
G0 X117.43 Y105.36
G0 X114.55 Y106.58
G1 F1200 X114.20 Y106.78 E44.18963
G1 X112.75 Y109.30 E44.37070
G1 X112.75 Y109.70 E44.39571
G1 X114.20 Y112.21 E44.57673
G1 X114.55 Y112.42 E44.60184
G1 X117.45 Y112.42 E44.78276
G1 X117.80 Y112.21 E44.80787
G1 X119.25 Y109.70 E44.98889
G1 X119.25 Y109.30 E45.01390
G1 X117.80 Y106.78 E45.19497
G1 X117.45 Y106.58 E45.22006
G1 X114.55 Y106.58 E45.40097
G0 F3600 X112.25 Y109.30
G1 F1200 X110.80 Y106.78 E45.58205
G1 X110.45 Y106.58 E45.60713
G1 X107.55 Y106.58 E45.78805
G1 X107.20 Y106.78 E45.81313
G1 X105.75 Y109.30 E45.99420
G1 X105.75 Y109.70 E46.01921
G1 X107.20 Y112.21 E46.20023
G1 X107.55 Y112.42 E46.22535
G1 X110.45 Y112.42 E46.40626
G1 X110.80 Y112.21 E46.43138
G1 X112.25 Y109.70 E46.61240
G1 X112.25 Y109.30 E46.63741
G0 F3600 X110.45 Y105.42
G1 F1200 X110.80 Y105.21 E46.66252
G1 X112.25 Y102.70 E46.84354
G1 X112.25 Y102.30 E46.86855
G1 X110.80 Y99.78 E47.04962
G1 X110.45 Y99.58 E47.07471
G1 X107.55 Y99.58 E47.25562
G1 X107.20 Y99.78 E47.28071
G1 X105.75 Y102.30 E47.46178
G1 X105.75 Y102.70 E47.48679
G1 X107.20 Y105.21 E47.66781
G1 X107.55 Y105.42 E47.69292
G1 X110.45 Y105.42 E47.87384
G0 F3600 X107.24 Y105.17
G0 X105.81 Y102.32
G0 X107.57 Y99.64
G0 X110.76 Y99.83
G0 X112.81 Y95.32
G0 X114.55 Y91.42
G1 F1200 X117.45 Y91.42 E48.05475
G1 X117.80 Y91.21 E48.07987
G1 X119.25 Y88.70 E48.26094
G1 X119.25 Y88.30 E48.28595
G1 X117.80 Y85.79 E48.46697
G1 X117.45 Y85.58 E48.49205
G1 X114.55 Y85.58 E48.67297
G1 X114.20 Y85.79 E48.69805
G1 X112.75 Y88.30 E48.87907
G1 X112.75 Y88.70 E48.90408
G1 X114.20 Y91.21 E49.08515
G1 X114.55 Y91.42 E49.11027
G0 F3600 X112.81 Y88.32
G0 X114.57 Y85.64
G0 X117.76 Y85.83
G0 X119.19 Y88.68
G0 X119.75 Y88.70
G1 F1200 X121.20 Y91.21 E49.29134
G1 X121.55 Y91.42 E49.31646
G1 X124.45 Y91.42 E49.49738
G1 X124.80 Y91.21 E49.52249
G1 X126.25 Y88.70 E49.70356
G1 X126.25 Y88.30 E49.72857
G1 X124.80 Y85.79 E49.90959
G1 X124.45 Y85.58 E49.93468
G1 X121.55 Y85.58 E50.11559
G1 X121.20 Y85.79 E50.14068
G1 X119.75 Y88.30 E50.32170
G1 X119.75 Y88.70 E50.34670
G0 F3600 X121.55 Y92.58
G1 F1200 X121.20 Y92.78 E50.37179
G1 X119.75 Y95.30 E50.55286
G1 X119.75 Y95.70 E50.57787
G1 X121.20 Y98.21 E50.75889
G1 X121.55 Y98.42 E50.78401
G1 X124.45 Y98.42 E50.96492
G1 X124.80 Y98.21 E50.99004
G1 X126.25 Y95.70 E51.17106
G1 X126.25 Y95.30 E51.19606
G1 X124.80 Y92.78 E51.37714
G1 X124.45 Y92.58 E51.40222
G1 X121.55 Y92.58 E51.58314
G0 F3600 X124.76 Y92.83
G0 X126.19 Y95.68
G0 X124.43 Y98.36
G0 X121.55 Y99.58
G1 F1200 X121.20 Y99.78 E51.60822
G1 X119.75 Y102.30 E51.78929
G1 X119.75 Y102.70 E51.81430
G1 X121.20 Y105.21 E51.99532
G1 X121.55 Y105.42 E52.02044
G1 X124.45 Y105.42 E52.20135
G1 X124.80 Y105.21 E52.22647
G1 X126.25 Y102.70 E52.40749
G1 X126.25 Y102.30 E52.43250
G1 X124.80 Y99.78 E52.61357
G1 X124.45 Y99.58 E52.63865
G1 X121.55 Y99.58 E52.81957
G0 F3600 X124.76 Y99.83
G0 X126.75 Y102.30
G1 F1200 X126.75 Y102.70 E52.84458
G1 X128.20 Y105.21 E53.02560
G1 X128.55 Y105.42 E53.05071
G1 X131.45 Y105.42 E53.23163
G1 X131.80 Y105.21 E53.25674
G1 X133.25 Y102.70 E53.43776
G1 X133.25 Y102.30 E53.46277
G1 X131.80 Y99.78 E53.64384
G1 X131.45 Y99.58 E53.66893
G1 X128.55 Y99.58 E53.84984
G1 X128.20 Y99.78 E53.87493
G1 X126.75 Y102.30 E54.05600
G0 F3600 X128.55 Y106.58
G1 F1200 X128.20 Y106.78 E54.08109
G1 X126.75 Y109.30 E54.26216
G1 X126.75 Y109.70 E54.28717
G1 X128.20 Y112.21 E54.46819
G1 X128.55 Y112.42 E54.49330
G1 X131.45 Y112.42 E54.67422
G1 X131.80 Y112.21 E54.69933
G1 X133.25 Y109.70 E54.88035
G1 X133.25 Y109.30 E54.90536
G1 X131.80 Y106.78 E55.08643
G1 X131.45 Y106.58 E55.11152
G1 X128.55 Y106.58 E55.29243
G0 F3600 X126.25 Y109.30
G1 F1200 X124.80 Y106.78 E55.47351
G1 X124.45 Y106.58 E55.49859
G1 X121.55 Y106.58 E55.67951
G1 X121.20 Y106.78 E55.70459
G1 X119.75 Y109.30 E55.88567
G1 X119.75 Y109.70 E55.91067
G1 X121.20 Y112.21 E56.09169
G1 X121.55 Y112.42 E56.11681
G1 X124.45 Y112.42 E56.29772
G1 X124.80 Y112.21 E56.32284
G1 X126.25 Y109.70 E56.50386
G1 X126.25 Y109.30 E56.52887
G0 F3600 X126.81 Y102.32
G0 X128.55 Y98.42
G1 F1200 X131.45 Y98.42 E56.70978
G1 X131.80 Y98.21 E56.73490
G1 X133.25 Y95.70 E56.91592
G1 X133.25 Y95.30 E56.94092
G1 X131.80 Y92.78 E57.12200
G1 X131.45 Y92.58 E57.14708
G1 X128.55 Y92.58 E57.32800
G1 X128.20 Y92.78 E57.35308
G1 X126.75 Y95.30 E57.53416
G1 X126.75 Y95.70 E57.55916
G1 X128.20 Y98.21 E57.74018
G1 X128.55 Y98.42 E57.76530
G0 F3600 X131.76 Y98.17
G0 X133.19 Y95.32
G0 X131.43 Y92.64
G0 X128.55 Y91.42
G1 F1200 X131.45 Y91.42 E57.94621
G1 X131.80 Y91.21 E57.97133
G1 X133.25 Y88.70 E58.15240
G1 X133.25 Y88.30 E58.17741
G1 X131.80 Y85.79 E58.35843
G1 X131.45 Y85.58 E58.38352
G1 X128.55 Y85.58 E58.56443
G1 X128.20 Y85.79 E58.58952
G1 X126.75 Y88.30 E58.77053
G1 X126.75 Y88.70 E58.79554
G1 X128.20 Y91.21 E58.97662
G1 X128.55 Y91.42 E59.00173
G0 F3600 X131.76 Y91.17
G0 X133.19 Y88.32
G0 X131.43 Y85.64
G0 X128.55 Y84.42
G1 F1200 X131.45 Y84.42 E59.18265
G1 X131.80 Y84.21 E59.20776
G1 X133.25 Y81.70 E59.38884
G1 X133.25 Y81.30 E59.41384
G1 X131.80 Y78.79 E59.59486
G1 X131.45 Y78.58 E59.61995
G1 X128.55 Y78.58 E59.80086
G1 X128.20 Y78.79 E59.82595
G1 X126.75 Y81.30 E60.00697
G1 X126.75 Y81.70 E60.03197
G1 X128.20 Y84.21 E60.21305
G1 X128.55 Y84.42 E60.23816
G0 F3600 X126.25 Y81.70
G1 F1200 X126.25 Y81.30 E60.26317
G1 X124.80 Y78.79 E60.44419
G1 X124.45 Y78.58 E60.46928
G1 X121.55 Y78.58 E60.65019
G1 X121.20 Y78.79 E60.67528
G1 X119.75 Y81.30 E60.85630
G1 X119.75 Y81.70 E60.88130
G1 X121.20 Y84.21 E61.06238
G1 X121.55 Y84.42 E61.08749
G1 X124.45 Y84.42 E61.26841
G1 X124.80 Y84.21 E61.29352
G1 X126.25 Y81.70 E61.47460
G0 F3600 X124.43 Y78.64
G0 X121.24 Y78.83
G0 X119.81 Y81.68
G0 X119.25 Y81.70
G1 F1200 X119.25 Y81.30 E61.49960
G1 X117.80 Y78.79 E61.68062
G1 X117.45 Y78.58 E61.70571
G1 X114.55 Y78.58 E61.88662
G1 X114.20 Y78.79 E61.91171
G1 X112.75 Y81.30 E62.09273
G1 X112.75 Y81.70 E62.11774
G1 X114.20 Y84.21 E62.29881
G1 X114.55 Y84.42 E62.32393
G1 X117.45 Y84.42 E62.50484
G1 X117.80 Y84.21 E62.52996
G1 X119.25 Y81.70 E62.71103
G0 F3600 X117.45 Y77.42
G1 F1200 X117.80 Y77.21 E62.73615
G1 X119.25 Y74.70 E62.91722
G1 X119.25 Y74.30 E62.94223
G1 X117.80 Y71.79 E63.12325
G1 X117.45 Y71.58 E63.14833
G1 X114.55 Y71.58 E63.32925
G1 X114.20 Y71.79 E63.35433
G1 X112.75 Y74.30 E63.53535
G1 X112.75 Y74.70 E63.56036
G1 X114.20 Y77.21 E63.74143
G1 X114.55 Y77.42 E63.76655
G1 X117.45 Y77.42 E63.94746
G0 F3600 X119.75 Y74.70
G1 F1200 X121.20 Y77.21 E64.12854
G1 X121.55 Y77.42 E64.15365
G1 X124.45 Y77.42 E64.33457
G1 X124.80 Y77.21 E64.35968
G1 X126.25 Y74.70 E64.54076
G1 X126.25 Y74.30 E64.56576
G1 X124.80 Y71.79 E64.74678
G1 X124.45 Y71.58 E64.77187
G1 X121.55 Y71.58 E64.95278
G1 X121.20 Y71.79 E64.97787
G1 X119.75 Y74.30 E65.15889
G1 X119.75 Y74.70 E65.18390
G0 F3600 X121.57 Y71.64
G0 X124.76 Y71.83
G0 X126.19 Y74.68
G0 X126.75 Y74.70
G1 F1200 X128.20 Y77.21 E65.36497
G1 X128.55 Y77.42 E65.39008
G1 X131.45 Y77.42 E65.57100
G1 X131.80 Y77.21 E65.59612
G1 X133.25 Y74.70 E65.77719
G1 X133.25 Y74.30 E65.80220
G1 X131.80 Y71.79 E65.98322
G1 X131.45 Y71.58 E66.00830
G1 X128.55 Y71.58 E66.18922
G1 X128.20 Y71.79 E66.21430
G1 X126.75 Y74.30 E66.39532
G1 X126.75 Y74.70 E66.42033
G0 F3600 X128.57 Y71.64
G0 X135.04 Y69.62
G1 F1200 X135.32 Y70.02 E66.45069
G1 X137.46 Y70.71 E66.59103
G1 X137.93 Y70.57 E66.62144
G1 X139.25 Y68.74 E66.76189
G1 X139.25 Y68.26 E66.79227
G1 X137.93 Y66.43 E66.93267
G1 X137.46 Y66.29 E66.96308
G1 X135.32 Y66.98 E67.10342
G1 X135.04 Y67.38 E67.13378
G1 X135.04 Y69.62 E67.27410
G0 F3600 X137.46 Y114.28
G1 F1200 X135.32 Y114.98 E67.41443
G1 X135.04 Y115.37 E67.44480
G1 X135.04 Y117.62 E67.58511
G1 X135.32 Y118.02 E67.61547
G1 X137.46 Y118.71 E67.75581
G1 X137.93 Y118.56 E67.78622
G1 X139.25 Y116.74 E67.92663
G1 X139.25 Y116.26 E67.95700
G1 X137.93 Y114.43 E68.09746
G1 X137.46 Y114.28 E68.12787
G0 F3600 X63.25 Y116.26
G1 F1200 X61.93 Y114.43 E68.26829
G1 X61.46 Y114.28 E68.29870
G1 X59.32 Y114.98 E68.43904
G1 X59.04 Y115.37 E68.46940
G1 X59.04 Y117.62 E68.60971
G1 X59.32 Y118.02 E68.64008
G1 X61.46 Y118.71 E68.78041
G1 X61.93 Y118.56 E68.81082
G1 X63.25 Y116.74 E68.95119
G1 X63.25 Y116.26 E68.98156
G0 F3600 X62.75 Y116.42
;TYPE:WALL-OUTER
G1 F1200 X61.62 Y114.86 E69.10163
G1 X61.46 Y114.81 E69.11174
G1 X59.63 Y115.40 E69.23189
G1 X59.54 Y115.54 E69.24198
G1 X59.54 Y117.46 E69.36209
G1 X59.63 Y117.59 E69.37218
G1 X61.46 Y118.19 E69.49232
G1 X61.62 Y118.14 E69.50244
G1 X62.75 Y116.58 E69.62245
G1 X62.75 Y116.42 E69.63262
G0 F3600 X63.03 Y116.21
G0 X61.89 Y114.49
G0 X61.46 Y114.35
G0 X59.36 Y115.03
G0 X59.10 Y115.39
G0 X59.10 Y117.60
G0 X57.51 Y119.90
G0 X57.25 Y120.25
G1 F1200 X57.25 Y64.75 E73.09375
G1 X140.75 Y64.75 E78.30104
G1 X140.75 Y120.25 E81.76217
G1 X57.25 Y120.25 E86.96946
G0 F3600 X57.51 Y119.90
G0 X105.90 Y109.57
G0 X106.25 Y109.57
G1 F1200 X107.57 Y111.85 E87.13377
G1 X107.68 Y111.92 E87.14218
G1 X110.32 Y111.92 E87.30638
G1 X110.43 Y111.85 E87.31479
G1 X111.75 Y109.57 E87.47910
G1 X111.75 Y109.43 E87.48740
G1 X110.43 Y107.15 E87.65176
G1 X110.32 Y107.08 E87.66014
G1 X107.68 Y107.08 E87.82434
G1 X107.57 Y107.15 E87.83272
G1 X106.25 Y109.43 E87.99708
G1 X106.25 Y109.57 E88.00538
G0 F3600 X105.90 Y109.57
G0 X107.57 Y112.36
G0 X110.76 Y112.17
G0 X112.90 Y109.57
G0 X113.25 Y109.57
G1 F1200 X114.57 Y111.85 E88.16969
G1 X114.68 Y111.92 E88.17810
G1 X117.32 Y111.92 E88.34230
G1 X117.43 Y111.85 E88.35071
G1 X118.75 Y109.57 E88.51502
G1 X118.75 Y109.43 E88.52331
G1 X117.43 Y107.15 E88.68768
G1 X117.32 Y107.08 E88.69606
G1 X114.68 Y107.08 E88.86026
G1 X114.57 Y107.15 E88.86863
G1 X113.25 Y109.43 E89.03300
G1 X113.25 Y109.57 E89.04129
G0 F3600 X112.90 Y109.57
G0 X114.57 Y112.36
G0 X117.76 Y112.17
G0 X119.90 Y109.57
G0 X120.25 Y109.57
G1 F1200 X121.57 Y111.85 E89.20561
G1 X121.68 Y111.92 E89.21401
G1 X124.32 Y111.92 E89.37821
G1 X124.43 Y111.85 E89.38662
G1 X125.75 Y109.57 E89.55093
G1 X125.75 Y109.43 E89.55923
G1 X124.43 Y107.15 E89.72359
G1 X124.32 Y107.08 E89.73197
G1 X121.68 Y107.08 E89.89617
G1 X121.57 Y107.15 E89.90455
G1 X120.25 Y109.43 E90.06892
G1 X120.25 Y109.57 E90.07721
G0 F3600 X119.90 Y109.57
G0 X121.57 Y112.36
G0 X124.76 Y112.17
G0 X126.90 Y109.57
G0 X127.25 Y109.57
G1 F1200 X128.57 Y111.85 E90.24152
G1 X128.68 Y111.92 E90.24993
G1 X131.32 Y111.92 E90.41413
G1 X131.43 Y111.85 E90.42254
G1 X132.75 Y109.57 E90.58685
G1 X132.75 Y109.43 E90.59514
G1 X131.43 Y107.15 E90.75951
G1 X131.32 Y107.08 E90.76789
G1 X128.68 Y107.08 E90.93209
G1 X128.57 Y107.15 E90.94047
G1 X127.25 Y109.43 E91.10483
G1 X127.25 Y109.57 E91.11313
G0 F3600 X126.90 Y109.57
G0 X128.68 Y105.26
G0 X128.68 Y104.92
G1 F1200 X131.32 Y104.92 E91.27733
G1 X131.43 Y104.85 E91.28573
G1 X132.75 Y102.57 E91.45005
G1 X132.75 Y102.43 E91.45834
G1 X131.43 Y100.15 E91.62271
G1 X131.32 Y100.08 E91.63108
G1 X128.68 Y100.08 E91.79528
G1 X128.57 Y100.15 E91.80366
G1 X127.25 Y102.43 E91.96803
G1 X127.25 Y102.57 E91.97632
G1 X128.57 Y104.85 E92.14063
G1 X128.68 Y104.92 E92.14904
G0 F3600 X128.68 Y105.26
G0 X128.24 Y105.17
G0 X126.10 Y102.57
G0 X125.75 Y102.57
G1 F1200 X125.75 Y102.43 E92.15733
G1 X124.43 Y100.15 E92.32170
G1 X124.32 Y100.08 E92.33008
G1 X121.68 Y100.08 E92.49428
G1 X121.57 Y100.15 E92.50266
G1 X120.25 Y102.43 E92.66702
G1 X120.25 Y102.57 E92.67532
G1 X121.57 Y104.85 E92.83963
G1 X121.68 Y104.92 E92.84804
G1 X124.32 Y104.92 E93.01224
G1 X124.43 Y104.85 E93.02064
G1 X125.75 Y102.57 E93.18496
G0 F3600 X126.10 Y102.57
G0 X124.43 Y105.36
G0 X121.24 Y105.17
G0 X119.10 Y102.57
G0 X118.75 Y102.57
G1 F1200 X118.75 Y102.43 E93.19325
G1 X117.43 Y100.15 E93.35762
G1 X117.32 Y100.08 E93.36599
G1 X114.68 Y100.08 E93.53019
G1 X114.57 Y100.15 E93.53857
G1 X113.25 Y102.43 E93.70294
G1 X113.25 Y102.57 E93.71123
G1 X114.57 Y104.85 E93.87554
G1 X114.68 Y104.92 E93.88395
G1 X117.32 Y104.92 E94.04815
G1 X117.43 Y104.85 E94.05656
G1 X118.75 Y102.57 E94.22087
G0 F3600 X119.10 Y102.57
G0 X117.43 Y105.36
G0 X114.24 Y105.17
G0 X112.10 Y102.57
G0 X111.75 Y102.57
G1 F1200 X111.75 Y102.43 E94.22917
G1 X110.43 Y100.15 E94.39353
G1 X110.32 Y100.08 E94.40191
